X: 38032
T: Spider's
R: reel
M: 4/4
K: Bdorian
|:B2fc BAFE|FAAF A2FA|B2fc BAFE|FAAF Bcdc|
B2fc BAFE|FAAF A2ce|f2ef B2AB|c2Bc AFFA:|
|:B2AB ceec|efaf b2ab|c'2bc' affe|cefa BAAF|
B2AB ceec|efaf b2ab|c'2bc' affe|cefa cBBA:|

